vendor/shopware/storefront/Resources/app/storefront/dist/assets/icon/default/money-wallet.svg

<svg xmlns="http://www.w3.org/2000/svg" width="24" height="24" viewBox="0 0 24 24">
  <path fill="#758CA3" fill-rule="evenodd" d="M2.00271973,7.8302541 C2.00460206,10.1389231 2.00781137,13.6901703 2.01665843,19.002082 C2.01780661,19.5535527 2.46518442,20 3.01665626,20 L19.020816,20 C19.5731007,20 20.020816,19.5522847 20.020816,19 L20.020816,17 L19,17 C17.8954305,17 17,16.1045695 17,15 L17,13 C17,11.8954305 17.8954305,11 19,11 L20.020816,11 L20.020816,9 C20.020816,8.44771525 19.5731007,8 19.020816,8 L6,8 L3,8 C2.65038066,8 2.31472977,7.94019391 2.00271973,7.8302541 Z M2.00000141,5.00170003 C2.00091905,5.55320322 2.44828204,6 3,6 L6,6 L17.0124529,6 L17.0249844,5 C17.0249844,4.44771525 16.5772691,4 16.0249844,4 L3,4 C2.44771525,4 2,4.44771525 2,5 C2.00000095,5.00056978 2.0000019,5.00113984 2.00000285,5.00171017 Z M22.020816,16.9998939 L22.020816,19 C22.020816,20.6568542 20.6776702,22 19.020816,22 L3.01665626,22 C1.36224074,22 0.0201073053,20.660658 0.016661985,19.0058297 C0.00948531272,14.6970076 0.00905351995,14.4377624 0.00499358938,12 L-6.66133815e-16,12 L-6.66133815e-16,5 C-8.32667268e-16,3.34314575 1.34314575,2 3,2 L16.0249844,2 C17.6818386,2 19.0249844,3.34314575 19.0249064,5.01249122 L19.0125702,6 L19.020816,6 C20.6776702,6 22.020816,7.34314575 22.020816,9 L22.020816,11.0001061 C23.1157974,11.0112716 24,11.9023775 24,13 L24,15 C24,16.0976225 23.1157974,16.9887284 22.020816,16.9998939 Z M19,13 L19,15 L22,15 L22,13 L19,13 Z"/>
</svg>

<svg xmlns="http://www.w3.org/2000/svg" width="24" height="24" viewBox="0 0 24 24"><path fill="#758CA3" fill-rule="evenodd" d="M2.0027 7.8303c.0019 2.3086.0051 5.8599.014 11.1718.0011.5515.4485.9979 1 .9979h16.0041c.5523 0 1-.4477 1-1v-2H19c-1.1046 0-2-.8954-2-2v-2c0-1.1046.8954-2 2-2h1.0208V9c0-.5523-.4477-1-1-1H3a2.9952 2.9952 0 0 1-.9973-.1697zM2 5.0017C2.001 5.5532 2.4483 6 3 6h14.0125l.0125-1c0-.5523-.4477-1-1-1H3c-.5523 0-1 .4477-1 1v.0017zm20.0208 11.9982V19c0 1.6569-1.3431 3-3 3H3.0167c-1.6545 0-2.9966-1.3393-3-2.9942L.005 12H0V5c0-1.6569 1.3431-3 3-3h13.025c1.6568 0 3 1.3431 3 3.0125L19.0125 6h.0082c1.6569 0 3 1.3431 3 3v2.0001C23.1158 11.0113 24 11.9024 24 13v2c0 1.0976-.8842 1.9887-1.9792 1.9999zM19 13v2h3v-2h-3z"/></svg>
